X:1
T:Where the Gates Swing Outward Never
T:Where the Gates Swing Outward Never
T:Charles Hutchinson Gabriel
T:Charles Hutchinson Gabriel, circa 1917
T:Public Domain Courtesy of the Cyber Hymnal™
T:Public Domain Courtesy of the Cyber Hymnal™
C:Charles Hutchinson Gabriel
Z:Public Domain
Z:Courtesy of the Cyber Hymnal™
%%score 1 ( 2 3 )
L:1/8
Q:1/4=110
M:4/4
K:Ab
V:1 treble 
V:2 bass 
V:3 bass 
V:1
 [CE]>[CE] | [CA]2 [DA]2 [CA]2 [CA]>[DB] | [Ec]2 [Ec]2 [Ec]2 [Ec]>[=EB] | [FA]3 [FB] [FA]2 [DF]2 | %4
w: 1.~Just a|few more days to be|filled with praise, And to|tell the old, old|
w: 2.~Just a|few more years with their|toil and tears, And the|jour- ney will be|
w: 3.~Though the|hills be steep and the|val- leys deep, With no|flowers my way a-|
w: 4.~What a|joy ’twill be when I|wake to see Him for|Whom my heart is|
 [DF]2 [CE]4 [CA]>[EA] | [EG]2 [DB]2 [DB]2 [DB]>[DB] | [CA]2 [Ec]2 [Ec]2 [Ec]>[Ec] | %7
w: sto- ry; Then, when|twi- light falls, and my|Sav- ior calls, I shall|
w: end- ed; Then I’ll|be with Him, where the|tide of time With e-|
w: dorn- ing; Though the|night be lone and my|rest a stone, Joy a-|
w: burn- ing! Ne- ver-|more to sigh, ne- ver-|more to die, For that|
 [EB]2 [EB]2 [=Dc]2 [A=d]2 | [Ge]4 [Ge]2 ||"^Refrain" [Ge]>[Fd] | [Ec]2 [Ec]2 [Ec]2 [Ec]>[=EB] | %11
w: go to Him in|glo- ry.|||
w: ter- ni- ty is|blend- ed.|||
w: waits me in the|morn- ing.|||
w: day my heart is|yearn- ing.|||
 [FA] [FA]3 [FA]2 [EG]>[DF] | [CE]2 [CE]2 [EA]2 [Ec]2 | [Ec]2 [EB]4 [Ge]>[Fd] | %14
w: |||
w: |||
w: |||
w: |||
 [Ec]2 [Ec]2 [Ec]2 [Ec]>[=EB] | [FA] [FA]3 [FA]2 [EG]>[DF] | [CE]2 [CE]2 [EA]2 [Ec]2 | %17
w: |||
w: |||
w: |||
w: |||
 [DB]4 [CA]2 |] %18
w: |
w: |
w: |
w: |
V:2
 [A,,A,]>[A,,A,] | [A,,E,]2 [A,,F,]2 [A,,E,]2 [A,,E,]>[A,,E,] | %2
w: ~ ~|~ ~ ~ ~ ~|
 [A,,A,]2 [A,,A,]2 [A,,A,]2 [A,,A,]>[C,A,] | [D,D]3 [B,,D] [D,D]2 [D,A,]2 | %4
w: ~ ~ ~ ~ ~|~ ~ ~ ~|
 [A,,A,]2 [A,,A,]4 [A,,A,]>[C,A,] | [E,B,]2 [E,G,]2 [E,G,]2 [E,G,]>[E,G,] | %6
w: ~ ~ ~ ~|~ ~ ~ ~ ~|
 A,2 A,2 A,2 [A,,A,]>[A,,A,] | [B,,G,]2 [B,,G,]2 [B,,F,]2 [B,,B,]2 | [E,B,]4 [E,B,]2 || %9
w: ~ ~ ~ ~ ~|~ ~ ~ ~|~ ~|
 [E,B,]>[E,G,] | [A,,A,]2 [A,,A,]2 [A,,A,]2 [A,,A,]>[A,,A,] | [D,D] [D,D]3 [D,D]2 [D,D]>[D,A,] | %12
w: I’ll ex-|change my cross for a|star- ry crown, Where the|
 [A,,A,]2 [A,,A,]2 [C,A,]2 [A,,A,]2 | [E,A,]2 [E,G,]4 [E,B,]>[E,G,] | %14
w: gates swing out- ward|ne- ver; At His|
 [A,,A,]2 [A,,A,]2 [A,,A,]2 [A,,A,]>[C,A,] | [D,D] [D,D]3 [D,D]2 [D,D]>[D,A,] | %16
w: feet I’ll lay ev- ery|bur- den down, And with|
 [E,A,]2 [E,A,]2 [E,C]2 [E,A,]2 | [E,G,]4 [A,,E,A,]2 |] %18
w: Je- sus reign for-|ev- er.|
V:3
 x2 | x8 | x8 | x8 | x8 | x8 | A,2 A,2 A,2 x2 | x8 | x6 || x2 | x8 | x8 | x8 | x8 | x8 | x8 | x8 | %17
 x6 |] %18

